X:1
T:Title
%%score { ( 1 3 ) | ( 2 4 ) }
L:1/8
M:4/4
K:Ab
V:1 treble nm="Grand Piano"
V:3 treble 
V:2 bass 
V:4 bass 
V:1
 z4 z2 z[Q:1/4=92] [CE] | [CE][CA] [Ec]>[DB] [CA]3 [CE] | [DF][FA] [Fd]>[Fc] [GB]3 B | %3
 BB=AB cB[Ge][Fd] | c4 A3 F | [CE][EA] c>B A3 E | F[EA] [Fd]>[=Dc] [EB]3 [EB] | %7
 [Ee][Ec][Ec][Fd] [DB]>[C=A] [DB][Ec] |[M:7/8] [A,CA]-[A,CA]-[A,CA]- [A,CA]3 z |[M:1/8] c | %10
[M:4/4] z4 [Ec]4[K:bass][K:treble] | [_Ge]<[Ge] [Ge][Ge] [F=d]3 [Fd] | %12
 [Ge][DGB][C_G=A][D=GB] [EGc][DGB] [B,EG]>[G,DF] | [C-E]4 C2 z2[K:treble] | %14
 z4 [Ec]4[K:bass][K:treble] | efeA d3 A | AAGA e2 G2 |[M:7/8] A-A-A- A3 z |] %18
V:2
 z4 z2 z [A,,A,] | [A,,A,][A,,A,] [E,A,]>[E,G,] [A,,A,]3 [A,,A,] | %2
 [D,A,][D,A,] [B,,A,]>[B,,A,] [E,G,]3 [E,G,E] | %3
 [E,G,D][E,G,D][E,_G,C][E,=G,D] [E,G,E][E,G,D][E,B,][E,G,] | A,4- [C,A,]3 [D,A,D] | %5
 [A,,A,][C,A,] [E,A,E]>[=E,G,D] [F,A,C]3 [C,A,] | [D,A,D][C,A,] [B,,A,]>[B,,F,] [E,G,]3 [D,G,] | %7
 [C,G,][C,G,][F,=A,][F,A,] [B,,B,]>[B,,F,] [E,G,][E,G,] |[M:7/8] A,,-A,,-A,,- A,,3 z |[M:1/8] E | %10
[M:4/4] EE D>[A,,E,] [A,,A,]A,,A,,[A,,A,] | [A,,C]<[A,,C] [C,A,][E,C] [A,B,]3 [A,B,] | %12
 [E,D]E,E,E, E,E, E,>E, | A,,4 [A,,E,]2 z E | EE D>[A,,E,] [A,,A,]A,,A,,[A,,A,] | %15
 [A,C_G][A,CG][A,CG][A,CG] [A,DF]3[K:bass] [F,D] | %16
 [=E,_C=D][E,CD][E,CD][E,CD] [_E,=CE]2 [E,B,_D]2 |[M:7/8] z E,F,>F, E,2 z |] %18
V:3
 x8 | x8 | x8 | x8 | E8 | x8 | x8 | x8 |[M:7/8] x7 |[M:1/8] x | %10
[M:4/4] cc B>[CA] z[K:bass] G,/F,/ E,[K:treble][Ec] | x8 | x8 | A,A, G,>F, A2 z[K:treble] c | %14
 cc B>[CA] z[K:bass] G,/F,/ E,[K:treble][Ec] | x8 | x8 |[M:7/8] [A,C]CD>B, C2 z |] %18
V:4
 x8 | x8 | x8 | x8 | A,,4 z4 | x8 | x8 | x8 |[M:7/8] x7 |[M:1/8] x |[M:4/4] x8 | x8 | x8 | x8 | %14
 x8 | x7[K:bass] x | x8 |[M:7/8] A,,-A,,-A,,- A,,3 z |] %18

